public/build/img/sistema/cxc.svg

<svg width="24" height="20" viewBox="0 0 24 20" fill="none" xmlns="http://www.w3.org/2000/svg">
<g clip-path="url(#clip0_66_4)">
<path d="M21.6147 16.4902C22.3021 16.1064 22.4488 15.374 21.9429 14.8525C21.437 14.3311 20.4716 14.2197 19.7842 14.6035L15.1615 17.1875H10.5042C10.1643 17.1875 9.88629 16.9766 9.88629 16.7188C9.88629 16.4609 10.1643 16.25 10.5042 16.25H11.1221H13.5936C14.2772 16.25 14.8294 15.8311 14.8294 15.3125C14.8294 14.7939 14.2772 14.375 13.5936 14.375H11.1221H10.5042H7.48037C6.35657 14.375 5.26754 14.665 4.3909 15.1953L2.65694 16.25H1.23579C0.552242 16.25 0 16.6689 0 17.1875V19.0625C0 19.5811 0.552242 20 1.23579 20H7.41472H13.613C14.7329 20 15.8258 19.7275 16.7295 19.2236L21.6185 16.4902H21.6147Z" fill="#F3F3F3"/>
</g>
<g clip-path="url(#clip1_66_4)">
<path d="M2.38533 3.50977C1.69793 3.89355 1.55118 4.62598 2.05708 5.14746C2.56297 5.66895 3.52843 5.78027 4.21584 5.39648L8.83845 2.8125H13.4958C13.8357 2.8125 14.1137 3.02344 14.1137 3.28125C14.1137 3.53906 13.8357 3.75 13.4958 3.75H12.8779H10.4064C9.72281 3.75 9.17057 4.16895 9.17057 4.6875C9.17057 5.20605 9.72281 5.625 10.4064 5.625H12.8779H13.4958H16.5196C17.6434 5.625 18.7325 5.33496 19.6091 4.80469L21.3431 3.75H22.7642C23.4478 3.75 24 3.33105 24 2.8125V0.9375C24 0.418945 23.4478 0 22.7642 0H16.5853H10.387C9.26711 0 8.17422 0.272461 7.27055 0.776367L2.38147 3.50977H2.38533Z" fill="#F3F3F3"/>
</g>
<g clip-path="url(#clip2_66_4)">
<path d="M7.60977 6.25C6.64117 6.25 5.85367 6.81055 5.85367 7.5V12.5C5.85367 13.1895 6.64117 13.75 7.60977 13.75H19.9024C20.871 13.75 21.6585 13.1895 21.6585 12.5V7.5C21.6585 6.81055 20.871 6.25 19.9024 6.25H7.60977ZM9.36586 12.5H7.60977V11.25C8.57836 11.25 9.36586 11.8105 9.36586 12.5ZM7.60977 8.75V7.5H9.36586C9.36586 8.18945 8.57836 8.75 7.60977 8.75ZM18.1464 12.5C18.1464 11.8105 18.9339 11.25 19.9024 11.25V12.5H18.1464ZM19.9024 8.75C18.9339 8.75 18.1464 8.18945 18.1464 7.5H19.9024V8.75ZM13.7561 11.875C12.3018 11.875 11.122 11.0352 11.122 10C11.122 8.96484 12.3018 8.125 13.7561 8.125C15.2104 8.125 16.3903 8.96484 16.3903 10C16.3903 11.0352 15.2104 11.875 13.7561 11.875Z" fill="#F3F3F3"/>
</g>
<defs>
<clipPath id="clip0_66_4">
<rect width="22.2439" height="6.25" fill="white" transform="translate(0 13.75)"/>
</clipPath>
<clipPath id="clip1_66_4">
<rect width="22.2439" height="6.25" fill="white" transform="matrix(-1 0 0 -1 24 6.25)"/>
</clipPath>
<clipPath id="clip2_66_4">
<rect width="15.8049" height="10" fill="white" transform="translate(5.85367 5)"/>
</clipPath>
</defs>
</svg>

<svg width="24" height="20" fill="none" xmlns="http://www.w3.org/2000/svg"><g clip-path="url(#a)"><path d="M21.615 16.49c.687-.384.834-1.116.328-1.637-.506-.522-1.471-.633-2.159-.25l-4.622 2.585h-4.658c-.34 0-.618-.211-.618-.47 0-.257.278-.468.618-.468h3.09c.683 0 1.235-.419 1.235-.938 0-.518-.552-.937-1.235-.937H7.48c-1.123 0-2.212.29-3.09.82L2.658 16.25H1.236c-.684 0-1.236.419-1.236.938v1.875C0 19.58.552 20 1.236 20h12.377c1.12 0 2.213-.273 3.117-.776l4.889-2.734h-.004Z" fill="#F3F3F3"/></g><g clip-path="url(#b)"><path d="M2.385 3.51c-.687.384-.834 1.116-.328 1.637.506.522 1.471.633 2.159.25l4.622-2.585h4.658c.34 0 .618.211.618.47 0 .257-.278.468-.618.468h-3.09c-.683 0-1.235.419-1.235.938 0 .518.552.937 1.235.937h6.114c1.123 0 2.213-.29 3.09-.82l1.733-1.055h1.421c.684 0 1.236-.419 1.236-.938V.938C24 .417 23.448 0 22.764 0H10.387c-1.12 0-2.213.272-3.116.776L2.38 3.51h.004Z" fill="#F3F3F3"/></g><g clip-path="url(#c)"><path d="M7.61 6.25c-.969 0-1.756.56-1.756 1.25v5c0 .69.787 1.25 1.756 1.25h12.292c.969 0 1.756-.56 1.756-1.25v-5c0-.69-.787-1.25-1.756-1.25H7.61Zm1.756 6.25H7.61v-1.25c.968 0 1.756.56 1.756 1.25ZM7.61 8.75V7.5h1.756c0 .69-.788 1.25-1.756 1.25Zm10.536 3.75c0-.69.788-1.25 1.756-1.25v1.25h-1.756Zm1.756-3.75c-.968 0-1.756-.56-1.756-1.25h1.756v1.25Zm-6.146 3.125c-1.454 0-2.634-.84-2.634-1.875 0-1.035 1.18-1.875 2.634-1.875s2.634.84 2.634 1.875c0 1.035-1.18 1.875-2.634 1.875Z" fill="#F3F3F3"/></g><defs><clipPath id="a"><path fill="#fff" transform="translate(0 13.75)" d="M0 0h22.244v6.25H0z"/></clipPath><clipPath id="b"><path fill="#fff" transform="rotate(180 12 3.125)" d="M0 0h22.244v6.25H0z"/></clipPath><clipPath id="c"><path fill="#fff" transform="translate(5.854 5)" d="M0 0h15.805v10H0z"/></clipPath></defs></svg>
